X: 33
T: Farewell to Ireland
R: reel
Z: 2012 John Chambers <jc@trillian.mit.edu>
B: "100 Essential Irish Session Tunes" 1995 Dave Mallinson, ed.
M: 4/4
L: 1/8
K: Ador
z |\
"Am"A,3C E3F | "G"GEDB, G,B,DB, | "Am"A,3C E3F | "G"GEDF "Am"EA,A,G, |
"Am"A,3C E3F | "G"GEDB, G,2 g2 | "Em"edeg "F"a2ba | "G"gedB "Am"BA A :|
|: g |\
"Am"a2ab agef | "G"g2ga "Em"gede | "Am"a2ab agef | "G"gedB "Am"BAAg |
"Am"agef "G"gage | "D"dedB "G"GABd | "F"cABA "Em"EAea | "G"gedB "Am"BA A :|
|: c |\
"Am"eAcA eAcA | "G"BG~G2 dGBd | "Am"eAcA eAcA | "G"dBGA "Am"BAAc |
"Am"eAcA eAcA | "G"d3B GABd | "F"cABA "Em"EAea | "G"gedB "Am"BA A :|
|: z |\
"A"ae^ce aece | "G"gdBd gdBd | "A"ae^ce a3f | "G"gedB BAAg |
"Am"agef "G"gage | "D"dedB "G"GABd | "F"cABA "Em"EAea | "G"gedB "Am"BA A :|

%%sep 2 1 500
%%sep 1 1 500

